X:1
T:Title
%%score { 1 | 2 }
L:1/8
Q:1/4=100
M:4/4
K:Bb
V:1 treble nm="Grand Piano"
V:2 bass 
V:1
 [DF]3 [DF] [EG][DF][B,D][DF] | [DB]4 [DF]2 z2 | [EG]3 [FA] [Ac][GB][FA][EG] | [DF]6 z2 | %4
w: Howard~E.~Smith * * * * *||||
 E3 F GABc | [Fd]4 [DFB]2 z2 | [CFA]3 [DFB] [CFA]GF=E | F6 z2 | [Fd]3 [Ge] d c3 | c3 d [Ec] [DB]3 | %10
w: ||||||
 [EB]3 [EB] [FA]2 [EG]2 | [DF]2 [Fd]2 [Fc]4 | [Fd]3 [Ge] d c3 | c3 d [Ec] [DB]3 | B3 B A2 G2 | %15
w: |||||
 F2 c2 [DB]4 |] %16
w: |
V:2
 [B,,B,]3 [B,,B,] [B,,B,][B,,B,][B,,F,][B,,B,] | [B,,F,]4 [B,,B,]2 z2 | %2
 [E,B,]3 [E,B,] [E,E][E,E][E,B,][E,B,] | [B,,B,]6 z2 | [F,A,]3 [F,B,E] [F,CE][F,CE][F,CE][F,A,E] | %5
 [B,,B,]4 B,,2 z2 | C,3 C, C,[C,B,C][C,A,C][C,G,C] | [F,A,C]6 z2 | %8
 [B,,B,]3 [B,,B,] [F,A,F] [F,A,E]3 | [F,A,E]3 [F,A,F] [B,,B,] [B,,B,]3 | %10
 [E,G,]3 [E,G,] [E,A,]2 [E,B,]2 | [B,,B,]2 [B,,B,]2 [F,A,]4 | [B,,B,]3 [B,,B,] [F,A,F] [F,A,E]3 | %13
 [F,A,E]3 [F,A,F] [B,,B,] [B,,B,]3 | [E,G,E]3 [E,G,E] [E,A,F]2 [E,B,E]2 | %15
 [F,B,D]2 [F,A,E]2 [B,,B,]4 |] %16

